X:34
T:Dark Girl Dressed in Blue, The
R:polka
D:John McKenna
D:Frankie Gavin: Croch Suas E
Z:id:hn-polka-34
M:2/4
L:1/8
K:D
FA Ad|B/c/d A>F|GB AF|BE G/F/E/D/|FA Ad|B/c/d A>F|GB A/B/A/G/|FD D2:|
|:FA A/B/d/e/|~f>d ed|Bd AF|BE G/F/E/D/|FA A/B/d/e/|f>d ed|Bd A/B/A/G/|FD D2:|
<end>
<start>
